X: 44
T:Waltz for Polle
M:6/4
L:1/4
S:Belgian - via Eurojam
R:Waltz
Z:Steve Mansfield
K:G
B3 ABd | D4EF | G3 EFG | B3A3 | B3ABd | D4EF |
G>AB AGF |1G6 :|2 G4AB |: c2B A2G | F4Bc | d2c B2A |
G2F EAB | c2B A2G | F4AF | G>AB AGF |1 G4AB :|2 G6 ||
<end>
<start>
